X: 14678
T: Gan Ainm
R: jig
M: 6/8
K: Amixolydian
|:~A3 GAA|BAA edB|~G3 BGB|edB dBG|
~A3 GAA|BAA edB|edB deg|1 edB A2e:|2 edB A2B||
|:Aaa ged|edB dBA|Ggg gfg|age deg|
Aaa ged|edB edB|edB deg|1 edB A2B:|2 edB A2e||

